Carto/POI/SVG/rail-light_solid_24px.svg

<svg width="24" height="24" viewBox="0 0 24 24" fill="none" xmlns="http://www.w3.org/2000/svg">
<path d="M16 17H18.5V12.05C18.4972 11.3653 18.4605 10.6811 18.39 9.99998L17.78 4.72998C17.7127 3.98546 17.3699 3.29287 16.8187 2.78789C16.2675 2.28292 15.5476 2.00193 14.8 1.99998H9.2C8.45526 1.996 7.73566 2.26917 7.18117 2.76636C6.62668 3.26355 6.27695 3.94921 6.2 4.68998L5.61 9.99998C5.53818 10.6944 5.50147 11.3919 5.5 12.09V17H8L3 22H6L10.5 17H13.5L19 22H22L16 17ZM8.26 5.35998C8.32 4.71998 8.86 3.99998 9.5 3.99998H14.5C15.14 3.99998 15.68 4.72998 15.74 5.36998L16.35 10.15C16.35 10.43 16.41 10.72 16.42 11.01H7.58C7.58 10.72 7.58 10.43 7.65 10.15L8.26 5.35998ZM12 15.5C11.7033 15.5 11.4133 15.412 11.1666 15.2472C10.92 15.0824 10.7277 14.8481 10.6142 14.574C10.5006 14.2999 10.4709 13.9983 10.5288 13.7073C10.5867 13.4164 10.7296 13.1491 10.9393 12.9393C11.1491 12.7295 11.4164 12.5867 11.7074 12.5288C11.9983 12.4709 12.2999 12.5006 12.574 12.6142C12.8481 12.7277 13.0824 12.92 13.2472 13.1666C13.412 13.4133 13.5 13.7033 13.5 14C13.5 14.3978 13.342 14.7793 13.0607 15.0606C12.7794 15.3419 12.3978 15.5 12 15.5Z" fill="#0F1621"/>
</svg>

<svg xmlns="http://www.w3.org/2000/svg" width="24" height="24" viewBox="0 0 24 24"><path d="M24,24H0V0H24Z" style="fill:none"/><path d="M16,17h2.5V12.05A20.74,20.74,0,0,0,18.39,10l-.61-5.27A3,3,0,0,0,14.8,2H9.2a3,3,0,0,0-3,2.69L5.61,10a20.74,20.74,0,0,0-.11,2.09V17H8L3,22H6l4.5-5h3L19,22h3ZM8.26,5.36C8.32,4.72,8.86,4,9.5,4h5c.64,0,1.18.73,1.24,1.37l.61,4.78c0,.28.06.57.07.86H7.58c0-.29,0-.58.07-.86ZM12,15.5A1.5,1.5,0,1,1,13.5,14,1.5,1.5,0,0,1,12,15.5Z"/></svg>
